X: 21092
Q: "Slow."
M: C
L: 1/16
K: Em
e2 |\
EEE2 G3A B3ABd3 | DDD2 F3E (DEFG) A3F |\
EEE2 G3A B3ABe3 | d3Bd3F EEE2 E2 :|\
|: g2 |\
e3f g2e2 b2e2g2e2 |
f3ed2f2 agfe d2f2 |\
e3fg3e b3eg3e | {^c}d3BA2F2 EEE2 E2 :|\
|: B2 |\
f2 |\
g2b2e2b2 g2b2e2b2 | f2a2d2a2 f2a2d2a2 |\
g2b2e2b2 g2b2e2b2 |
f3da3f eee2 e3f |\
g2b2e2b2 g2b2e2b2 | f2a2d2a2 f2a2d2a2 |\
g2b2e2b2 f2a2e2f2 | d^cBA d3F EEE2 E2 |]


